src/sym-ehr-s.svg

<svg width="32" height="32" viewBox="0 0 32 32" fill="none" xmlns="http://www.w3.org/2000/svg">
<path d="M9.24525 0.0639648L2.78125 6.52797H8.02925C8.73325 3.96797 11.4852 0.543965 12.3172 0.0639648H9.24525Z" fill="black"/>
<path d="M15.4532 6.52797V0.0639648H13.9812C11.242 2.03516 9.68258 5.19463 9.24525 6.52797H15.4532Z" fill="black"/>
<path d="M16.7012 6.52797H22.9732C21.514 3.04636 19.1439 0.767965 18.1412 0.0639648H16.7012V6.52797Z" fill="black"/>
<path d="M24.1892 6.52797H29.2772L22.7492 0.0639648H19.8692C21.9428 1.95836 23.3892 4.60797 24.1892 6.52797Z" fill="black"/>
<path d="M22.8133 31.9999L29.2773 25.5359L24.0293 25.5359C23.3253 28.0959 20.5733 31.5199 19.7413 31.9999L22.8133 31.9999Z" fill="black"/>
<path d="M16.6053 25.5359L16.6053 31.9999L18.0773 31.9999C20.8165 30.0287 22.376 26.8692 22.8133 25.5359L16.6053 25.5359Z" fill="black"/>
<path d="M15.3573 25.5359L9.08535 25.5359C10.5445 29.0175 12.9147 31.2959 13.9173 31.9999L15.3573 31.9999L15.3573 25.5359Z" fill="black"/>
<path d="M7.86935 25.5359L2.78135 25.5359L9.30935 31.9999L12.1893 31.9999C10.1157 30.1055 8.66935 27.4559 7.86935 25.5359Z" fill="black"/>
<path d="M3.77344 22H10.3174V20.224H5.75744V16.656H9.26144V14.88H5.75744V12.016H10.3174V10.24H3.77344V22Z" fill="black"/>
<path d="M12.4642 22H14.4322V16.88H17.5682V22H19.5362V10.24H17.5682V15.088H14.4322V10.24H12.4642V22Z" fill="black"/>
<path d="M21.6829 22H23.6509V17.568H24.4189L27.0909 22H29.2189L26.4989 17.488C26.8296 17.4133 27.1496 17.3013 27.4589 17.152C27.7683 16.992 28.0349 16.7787 28.2589 16.512C28.4936 16.2453 28.6536 15.9467 28.7389 15.616C28.8349 15.2853 28.8829 14.9493 28.8829 14.608V13.2C28.8829 12.8587 28.8349 12.5227 28.7389 12.192C28.6429 11.8613 28.4829 11.5627 28.2589 11.296C28.0349 11.0293 27.7683 10.816 27.4589 10.656C27.1496 10.496 26.8243 10.3893 26.4829 10.336C26.1416 10.272 25.8003 10.24 25.4589 10.24H21.6829V22ZM23.6509 15.792V12.016H25.4589C25.6403 12.016 25.8163 12.0373 25.9869 12.08C26.1683 12.112 26.3283 12.1813 26.4669 12.288C26.6163 12.3947 26.7283 12.5333 26.8029 12.704C26.8776 12.864 26.9149 13.0293 26.9149 13.2V14.608C26.9149 14.7787 26.8776 14.9493 26.8029 15.12C26.7283 15.28 26.6163 15.4133 26.4669 15.52C26.3283 15.6267 26.1683 15.7013 25.9869 15.744C25.8163 15.776 25.6403 15.792 25.4589 15.792H23.6509Z" fill="black"/>
</svg>

<svg xmlns="http://www.w3.org/2000/svg" viewBox="0 0 32 32">
	<path
		d="M9.2.1L2.8 6.5H8c.7-2.6 3.5-6 4.3-6.5H9.2zm6.3 6.4V.1H14c-2.7 2-4.3 5.1-4.7 6.5h6.2zm1.2 0H23C21.5 3 19.2.7 18.2 0h-1.4v6.5zm7.5 0h5.1L22.8 0h-2.9c2 2 3.5 4.6 4.3 6.5zM22.8 32l6.5-6.5H24c-.7 2.6-3.5 6-4.3 6.5h3.1zm-6.2-6.5V32h1.5c2.7-2 4.3-5.1 4.7-6.5h-6.2zm-1.2 0H9.1c1.5 3.5 3.8 5.8 4.8 6.5h1.4v-6.5zm-7.5 0H2.8L9.3 32h2.9c-2.1-1.9-3.5-4.5-4.3-6.5zM3.8 22h6.5v-1.8H5.8v-3.6h3.5v-1.8H5.8V12h4.6v-1.8H3.8V22zm8.7 0h2v-5.1h3.1V22h2V10.2h-2V15h-3.1v-4.8h-2V22zm9.2 0h2v-4.4h.8l2.7 4.4h2.1l-2.7-4.5c.3-.1.7-.2 1-.3.3-.2.6-.4.8-.6.2-.3.4-.6.5-.9.1-.3.1-.7.1-1v-1.4c0-.3 0-.7-.1-1-.1-.3-.3-.6-.5-.9-.2-.3-.5-.5-.8-.6-.3-.2-.6-.3-1-.3-.3-.1-.7-.1-1-.1h-3.8V22zm2-6.2V12h1.8c.2 0 .4 0 .5.1.2 0 .3.1.5.2.1.1.3.2.3.4.1.2.1.3.1.5v1.4c0 .2 0 .3-.1.5s-.2.3-.3.4c-.1.1-.3.2-.5.2h-2.3z" />
</svg>
